svg/device/bluetooth_off_line.svg

<?xml version="1.0" encoding="UTF-8"?>
<svg width="24px" height="24px" viewBox="0 0 24 24" version="1.1" xmlns="http://www.w3.org/2000/svg" xmlns:xlink="http://www.w3.org/1999/xlink">
    <title>bluetooth_off_line</title>
    <g id="页面-1" stroke="none" stroke-width="1" fill="none" fill-rule="evenodd">
        <g id="Device" transform="translate(-240.000000, -96.000000)">
            <g id="bluetooth_off_line" transform="translate(240.000000, 96.000000)">
                 <path d="M24,0 L24,24 L0,24 L0,0 L24,0 Z M12.5934901,23.257841 L12.5819402,23.2595131 L12.5108777,23.2950439 L12.4918791,23.2987469 L12.4918791,23.2987469 L12.4767152,23.2950439 L12.4056548,23.2595131 C12.3958229,23.2563662 12.3870493,23.2590235 12.3821421,23.2649074 L12.3780323,23.275831 L12.360941,23.7031097 L12.3658947,23.7234994 L12.3769048,23.7357139 L12.4804777,23.8096931 L12.4953491,23.8136134 L12.4953491,23.8136134 L12.5071152,23.8096931 L12.6106902,23.7357139 L12.6232938,23.7196733 L12.6232938,23.7196733 L12.6266527,23.7031097 L12.609561,23.275831 C12.6075724,23.2657013 12.6010112,23.2592993 12.5934901,23.257841 L12.5934901,23.257841 Z M12.8583906,23.1452862 L12.8445485,23.1473072 L12.6598443,23.2396597 L12.6498822,23.2499052 L12.6498822,23.2499052 L12.6471943,23.2611114 L12.6650943,23.6906389 L12.6699349,23.7034178 L12.6699349,23.7034178 L12.678386,23.7104931 L12.8793402,23.8032389 C12.8914285,23.8068999 12.9022333,23.8029875 12.9078286,23.7952264 L12.9118235,23.7811639 L12.8776777,23.1665331 C12.8752882,23.1545897 12.8674102,23.1470016 12.8583906,23.1452862 L12.8583906,23.1452862 Z M12.1430473,23.1473072 C12.1332178,23.1423925 12.1221763,23.1452606 12.1156365,23.1525954 L12.1099173,23.1665331 L12.0757714,23.7811639 C12.0751323,23.7926639 12.0828099,23.8018602 12.0926481,23.8045676 L12.108256,23.8032389 L12.3092106,23.7104931 L12.3186497,23.7024347 L12.3186497,23.7024347 L12.3225043,23.6906389 L12.340401,23.2611114 L12.337245,23.2485176 L12.337245,23.2485176 L12.3277531,23.2396597 L12.1430473,23.1473072 Z" id="MingCute" fill-rule="nonzero"></path>
                <path d="M11.0001,14.4041 L13.0001,16.4041 L13.0001,19 L14.4835,17.8875 L15.912,19.316 L12.6161,21.788 C11.9803727,22.2647955 11.0858769,21.853395 11.0058725,21.0912116 L11.0001,20.98 L11.0001,14.4041 Z M12.5236498,2.14989504 L12.6161,2.21201 L18.4934,6.62001 C19.0434313,7.03251937 19.0778082,7.83173871 18.5965309,8.29257035 L18.4934,8.38001 L13.5225,12.1082 L20.4854,19.071 C20.8759,19.4616 20.8759,20.0947 20.4854,20.4853 C20.1249385,20.8457615 19.5576793,20.8734893 19.1654027,20.5684834 L19.0712,20.4853 L3.51482,4.92891 C3.12429,4.53838 3.12429,3.90522 3.51482,3.51469 C3.8753,3.15421 4.44253503,3.12648077 4.8348235,3.43150231 L4.92903,3.51469 L11.0001,9.58572 L11.0001,3.02001 C11.0001,2.22558 11.8657903,1.75656062 12.5236498,2.14989504 Z M9.34061,12.7446 L10.7692,14.1732 L6.60006,17.3 C6.15823,17.6314 5.53143,17.5418 5.20006,17.1 C4.89418,16.6921846 4.94694521,16.1267361 5.30438413,15.781502 L5.40006,15.7 L9.34061,12.7446 Z M13.0001,5.00001 L13.0001,10.00001 L16.3334,7.50001 L13.0001,5.00001 Z" id="形状" fill="#09244B"></path>
            </g>
        </g>
    </g>
</svg>

<svg xmlns="http://www.w3.org/2000/svg" width="24" height="24"><g fill="none" fill-rule="evenodd"><path d="M24 0v24H0V0h24ZM12.593 23.258l-.011.002-.071.035-.02.004-.014-.004-.071-.035c-.01-.004-.019-.001-.024.005l-.004.01-.017.428.005.02.01.013.104.074.015.004.012-.004.104-.074.012-.016.004-.017-.017-.427c-.002-.01-.009-.017-.017-.018Zm.265-.113-.013.002-.185.093-.01.01-.003.011.018.43.005.012.008.007.201.093c.012.004.023 0 .029-.008l.004-.014-.034-.614c-.003-.012-.01-.02-.02-.022Zm-.715.002a.023.023 0 0 0-.027.006l-.006.014-.034.614c0 .012.007.02.017.024l.015-.002.201-.093.01-.008.004-.011.017-.43-.003-.012-.01-.01-.184-.092Z"/><path fill="#09244B" d="m11 14.404 2 2V19l1.483-1.113 1.429 1.429-3.296 2.472a1.01 1.01 0 0 1-1.61-.697L11 20.98v-6.576ZM12.524 2.15l.092.062 5.877 4.408a1.1 1.1 0 0 1 .104 1.673l-.104.087-4.97 3.728 6.962 6.963a1 1 0 0 1-1.32 1.497l-.094-.083L3.515 4.93a1 1 0 0 1 1.32-1.497l.094.083L11 9.585V3.02a1.01 1.01 0 0 1 1.524-.87ZM9.34 12.745l1.428 1.428L6.6 17.3a1 1 0 0 1-1.296-1.518L5.4 15.7l3.94-2.955ZM13 5v5l3.332-2.5L13 5Z"/></g></svg>
